static/assets/images/exchanges/ocelex.svg

<svg width="187" height="256" viewBox="0 0 187 256" fill="none" xmlns="http://www.w3.org/2000/svg">
<path d="M0 243.109V224.456C0 217.327 5.79832 211.565 12.8994 211.565H22.8356C29.9694 211.565 35.735 205.77 35.735 198.673V153.392C35.735 146.263 41.5301 140.5 48.6311 140.5H58.5673C65.7012 140.5 71.4667 134.706 71.4667 127.609C71.4667 120.48 65.6684 114.718 58.5673 114.718H48.6311C41.4972 114.718 35.735 108.924 35.735 101.827V57.7497C35.735 50.6207 29.9366 44.8582 22.8356 44.8582H12.8994C5.76551 44.8582 0 39.0639 0 31.9673V12.891C0 5.76182 5.79832 0 12.8994 0H30.7833C37.9172 0 43.6827 5.79439 43.6827 12.891V22.429C43.6827 29.5582 49.4777 35.3203 56.5788 35.3203H66.1245C73.2584 35.3203 79.0206 41.115 79.0206 48.2115V93.1028C79.0206 100.232 84.8189 105.994 91.92 105.994H94.6895C101.823 105.994 107.589 100.199 107.589 93.1028V48.2115C107.589 41.0822 113.387 35.3203 120.488 35.3203H130.031C137.165 35.3203 142.93 29.5256 142.93 22.429V12.891C142.93 5.76182 148.728 0 155.83 0H174.101C181.234 0 187 5.79439 187 12.891V31.9673C187 39.0964 181.202 44.8582 174.101 44.8582H163.777C156.643 44.8582 150.878 50.6532 150.878 57.7497V101.827C150.878 108.956 145.079 114.718 137.978 114.718H128.042C120.912 114.718 115.146 120.513 115.146 127.609C115.146 134.738 120.944 140.5 128.042 140.5H137.978C145.112 140.5 150.878 146.295 150.878 153.392V198.673C150.878 205.803 156.676 211.565 163.777 211.565H174.101C181.234 211.565 187 217.359 187 224.456V243.109C187 250.238 181.202 256 174.101 256H155.83C148.696 256 142.93 250.206 142.93 243.109V233.571C142.93 226.442 137.132 220.68 130.031 220.68H120.488C113.354 220.68 107.589 214.885 107.589 207.789V162.897C107.589 155.768 101.791 150.006 94.6895 150.006H91.92C84.7861 150.006 79.0206 155.801 79.0206 162.897V207.789C79.0206 214.918 73.2256 220.68 66.1245 220.68H56.5788C49.4449 220.68 43.6827 226.474 43.6827 233.571V243.109C43.6827 250.238 37.8844 256 30.7833 256H12.8994C5.76551 256 0 250.206 0 243.109Z" fill="#CCE20C"/>
</svg>

<svg xmlns="http://www.w3.org/2000/svg" fill="none" viewBox="0 0 187 256"><path fill="#CCE20C" d="M0 243.109v-18.653c0-7.129 5.798-12.891 12.9-12.891h9.936c7.133 0 12.899-5.795 12.899-12.892v-45.281c0-7.129 5.795-12.892 12.896-12.892h9.936c7.134 0 12.9-5.794 12.9-12.891 0-7.129-5.799-12.891-12.9-12.891h-9.936c-7.134 0-12.896-5.794-12.896-12.891V57.75c0-7.13-5.798-12.892-12.9-12.892H12.9c-7.134 0-12.9-5.794-12.9-12.89V12.89C0 5.761 5.798 0 12.9 0h17.883c7.134 0 12.9 5.794 12.9 12.891v9.538c0 7.13 5.795 12.891 12.896 12.891h9.545c7.134 0 12.897 5.795 12.897 12.892v44.89c0 7.13 5.798 12.892 12.899 12.892h2.77c7.133 0 12.899-5.795 12.899-12.891V48.212c0-7.13 5.798-12.892 12.899-12.892h9.543c7.134 0 12.899-5.794 12.899-12.891v-9.538c0-7.13 5.798-12.891 12.9-12.891h18.271C181.234 0 187 5.794 187 12.891v19.076c0 7.13-5.798 12.891-12.899 12.891h-10.324c-7.134 0-12.899 5.795-12.899 12.892v44.077c0 7.129-5.799 12.891-12.9 12.891h-9.936c-7.13 0-12.896 5.795-12.896 12.891 0 7.129 5.798 12.891 12.896 12.891h9.936c7.134 0 12.9 5.795 12.9 12.892v45.281c0 7.13 5.798 12.892 12.899 12.892h10.324c7.133 0 12.899 5.794 12.899 12.891v18.653c0 7.129-5.798 12.891-12.899 12.891H155.83c-7.134 0-12.9-5.794-12.9-12.891v-9.538c0-7.129-5.798-12.891-12.899-12.891h-9.543c-7.134 0-12.899-5.795-12.899-12.891v-44.892c0-7.129-5.798-12.891-12.9-12.891H91.92c-7.134 0-12.9 5.795-12.9 12.891v44.892c0 7.129-5.794 12.891-12.895 12.891h-9.546c-7.134 0-12.896 5.794-12.896 12.891v9.538c0 7.129-5.799 12.891-12.9 12.891H12.9C5.766 256 0 250.206 0 243.109"/></svg>
